icons/1_Primary/Bitdefender.svg

<svg width="1024" height="1024" fill="none" xmlns="http://www.w3.org/2000/svg"><g clip-path="url(#a)"><path d="M512 1024c282.77 0 512-229.23 512-512S794.77 0 512 0 0 229.23 0 512s229.23 512 512 512Z" fill="#FF837D"/><path d="M608.3 499.9v-1.3c46.5-14 78.2-47.7 78.2-98.6 0-82.1-70-113.3-138-113.3H318.4v6.7l23.1 19.6c27.7 22.6 31.4 27 31.4 47.4v376.8h162.4c85.2 0 170.5-30.6 170.5-128.6-.1-57.7-40.9-102.3-97.5-108.7ZM453 355.5h66.1c44.7 0 58.6 6.2 72.2 19 10.3 9.8 15 23.2 15.1 38.9 0 14.5-5 27.6-15.6 37.7-13.2 12.7-31.4 18.9-64.6 18.9H453V355.5Zm73.8 313.1H453V538.7h77c64.9 0 95.5 16.5 95.5 63.6 0 59.3-57.4 66.3-98.7 66.3Z" fill="#fff"/></g><defs><clipPath id="a"><path fill="#fff" d="M0 0h1024v1024H0z"/></clipPath></defs></svg>

<svg width="1024" height="1024" viewBox="0 0 1024 1024" fill="none" xmlns="http://www.w3.org/2000/svg">
<g clip-path="url(#clip0_2_1620)">
<path d="M512 1024C794.77 1024 1024 794.77 1024 512C1024 229.23 794.77 0 512 0C229.23 0 0 229.23 0 512C0 794.77 229.23 1024 512 1024Z" fill="#FF837D"/>
<path d="M608.3 499.9V498.6C654.8 484.6 686.5 450.9 686.5 400C686.5 317.9 616.5 286.7 548.5 286.7H318.4V293.4L341.5 313C369.2 335.6 372.9 340 372.9 360.4V737.2H535.3C620.5 737.2 705.8 706.6 705.8 608.6C705.7 550.9 664.9 506.3 608.3 499.9ZM453 355.5H519.1C563.8 355.5 577.7 361.7 591.3 374.5C601.6 384.3 606.3 397.7 606.4 413.4C606.4 427.9 601.4 441 590.8 451.1C577.6 463.8 559.4 470 526.2 470H453V355.5ZM526.8 668.6H453V538.7H530C594.9 538.7 625.5 555.2 625.5 602.3C625.5 661.6 568.1 668.6 526.8 668.6Z" fill="white"/>
</g>
<defs>
<clipPath id="clip0_2_1620">
<rect width="1024" height="1024" fill="white"/>
</clipPath>
</defs>
</svg>
